img/illustrations/Your_organization_provides_services_in_electronic_form.svg

<svg width="145" height="145" viewBox="0 0 145 145" fill="none" xmlns="http://www.w3.org/2000/svg">
<path d="M5 121.03L140 121.08" stroke="#007B64" stroke-width="2" stroke-miterlimit="10" stroke-linecap="round"/>
<path d="M58.9201 108.52H131.98C132.245 108.52 132.5 108.625 132.687 108.813C132.875 109 132.98 109.255 132.98 109.52C132.987 111.022 132.697 112.511 132.128 113.902C131.56 115.292 130.722 116.557 129.665 117.624C128.607 118.691 127.35 119.539 125.964 120.12C124.579 120.701 123.092 121.003 121.59 121.01H23.3101C20.2777 120.991 17.3768 119.77 15.2448 117.613C13.1128 115.457 11.9241 112.542 11.9401 109.51V109.51C11.9401 109.245 12.0455 108.99 12.233 108.803C12.4205 108.615 12.6749 108.51 12.9401 108.51H51.4201" fill="white"/>
<path d="M115.6 29H29.5398C25.6904 29 22.5698 32.1206 22.5698 35.97V101.03C22.5698 104.879 25.6904 108 29.5398 108H115.6C119.449 108 122.57 104.879 122.57 101.03V35.97C122.57 32.1206 119.449 29 115.6 29Z" fill="white"/>
<path d="M62.9302 108.52C62.9302 108.52 70.4502 96.91 89.1802 96.4C108.34 95.87 101.18 83.28 121.91 80.16L122.91 82.25V98.1C122.91 98.1 123.91 107.5 116.7 108.54C109.49 109.58 62.9302 108.52 62.9302 108.52Z" fill="#EBEBEB"/>
<path d="M22.3301 101.34V36.24C22.3274 34.3506 23.0727 32.5369 24.403 31.1953C25.7334 29.8537 27.5407 29.0932 29.4301 29.08H109.49" stroke="#007B64" stroke-width="2.18" stroke-miterlimit="10" stroke-linecap="round"/>
<path d="M106.03 29.12H115.57C117.459 29.1358 119.265 29.8989 120.594 31.2424C121.922 32.5859 122.665 34.4006 122.66 36.29V101.38C122.663 102.952 122.146 104.482 121.19 105.73C120.534 106.6 119.685 107.307 118.71 107.795C117.735 108.282 116.66 108.537 115.57 108.54H108.07" stroke="#007B64" stroke-width="2" stroke-miterlimit="10" stroke-linecap="round"/>
<path d="M58.9201 108.52H131.98C132.245 108.52 132.5 108.625 132.687 108.813C132.875 109 132.98 109.255 132.98 109.52C132.987 111.022 132.697 112.511 132.128 113.902C131.56 115.292 130.722 116.557 129.665 117.624C128.607 118.691 127.35 119.539 125.964 120.12C124.579 120.701 123.092 121.003 121.59 121.01H23.3101C20.2777 120.991 17.3768 119.77 15.2448 117.613C13.1128 115.457 11.9241 112.542 11.9401 109.51V109.51C11.9401 109.245 12.0455 108.99 12.233 108.803C12.4205 108.615 12.6749 108.51 12.9401 108.51H51.4201" stroke="#007B64" stroke-width="2" stroke-miterlimit="10" stroke-linecap="round"/>
<path d="M30.8398 39.54L113.6 39.57" stroke="#007B64" stroke-width="2" stroke-miterlimit="10" stroke-linecap="round"/>
<path d="M40.79 76.54L89.57 76.57" stroke="#007B64" stroke-width="2" stroke-miterlimit="10" stroke-linecap="round"/>
<path d="M40.5698 82.27L89.3498 82.3" stroke="#007B64" stroke-width="2" stroke-miterlimit="10" stroke-linecap="round"/>
<path d="M40.5698 88L89.3498 88.03" stroke="#007B64" stroke-width="2" stroke-miterlimit="10" stroke-linecap="round"/>
<path d="M110.3 33.64H91.4898C90.9707 33.64 90.5498 34.0609 90.5498 34.58C90.5498 35.0991 90.9707 35.52 91.4898 35.52H110.3C110.819 35.52 111.24 35.0991 111.24 34.58C111.24 34.0609 110.819 33.64 110.3 33.64Z" fill="#FFC463"/>
<path d="M33.8 33.25H33.79C33.0776 33.25 32.5 33.8276 32.5 34.54V34.57C32.5 35.2824 33.0776 35.86 33.79 35.86H33.8C34.5124 35.86 35.09 35.2824 35.09 34.57V34.54C35.09 33.8276 34.5124 33.25 33.8 33.25Z" fill="#C4C4C4"/>
<path d="M37.6799 33.25H37.6699C36.9574 33.25 36.3799 33.8276 36.3799 34.54V34.57C36.3799 35.2824 36.9574 35.86 37.6699 35.86H37.6799C38.3923 35.86 38.9699 35.2824 38.9699 34.57V34.54C38.9699 33.8276 38.3923 33.25 37.6799 33.25Z" fill="#C4C4C4"/>
<path d="M41.5598 33.25H41.5498C40.8373 33.25 40.2598 33.8276 40.2598 34.54V34.57C40.2598 35.2824 40.8373 35.86 41.5498 35.86H41.5598C42.2722 35.86 42.8498 35.2824 42.8498 34.57V34.54C42.8498 33.8276 42.2722 33.25 41.5598 33.25Z" fill="#C4C4C4"/>
<path d="M67.5401 51.04H43.8801C42.2067 51.04 40.8501 52.3966 40.8501 54.07V66.97C40.8501 68.6434 42.2067 70 43.8801 70H67.5401C69.2135 70 70.5701 68.6434 70.5701 66.97V54.07C70.5701 52.3966 69.2135 51.04 67.5401 51.04Z" fill="#FFC463"/>
</svg>

<svg width="145" height="145" fill="none" xmlns="http://www.w3.org/2000/svg"><path d="M5 121.03l135 .05" stroke="#007B64" stroke-width="2" stroke-miterlimit="10" stroke-linecap="round"/><path d="M58.92 108.52h73.06a.997.997 0 011 1 11.434 11.434 0 01-3.315 8.104 11.439 11.439 0 01-8.075 3.386H23.31a11.44 11.44 0 01-11.37-11.5 1 1 0 011-1h38.48M115.6 29H29.54a6.97 6.97 0 00-6.97 6.97v65.06a6.97 6.97 0 006.97 6.97h86.06a6.97 6.97 0 006.97-6.97V35.97A6.97 6.97 0 00115.6 29z" fill="#fff"/><path d="M62.93 108.52s7.52-11.61 26.25-12.12c19.16-.53 12-13.12 32.73-16.24l1 2.09V98.1s1 9.4-6.21 10.44c-7.21 1.04-53.77-.02-53.77-.02z" fill="#EBEBEB"/><path d="M22.33 101.34v-65.1a7.15 7.15 0 017.1-7.16h80.06" stroke="#007B64" stroke-width="2.18" stroke-miterlimit="10" stroke-linecap="round"/><path d="M106.03 29.12h9.54a7.151 7.151 0 017.09 7.17v65.09a7.133 7.133 0 01-1.47 4.35 7.069 7.069 0 01-5.62 2.81h-7.5" stroke="#007B64" stroke-width="2" stroke-miterlimit="10" stroke-linecap="round"/><path d="M58.92 108.52h73.06a.997.997 0 011 1 11.434 11.434 0 01-3.315 8.104 11.439 11.439 0 01-8.075 3.386H23.31a11.44 11.44 0 01-11.37-11.5v0a1 1 0 011-1h38.48M30.84 39.54l82.76.03M40.79 76.54l48.78.03m-49 5.7l48.78.03M40.57 88l48.78.03" stroke="#007B64" stroke-width="2" stroke-miterlimit="10" stroke-linecap="round"/><path d="M110.3 33.64H91.49a.94.94 0 000 1.88h18.81a.94.94 0 000-1.88z" fill="#FFC463"/><path d="M33.8 33.25h-.01a1.29 1.29 0 00-1.29 1.29v.03c0 .712.578 1.29 1.29 1.29h.01a1.29 1.29 0 001.29-1.29v-.03a1.29 1.29 0 00-1.29-1.29zm3.88 0h-.01a1.29 1.29 0 00-1.29 1.29v.03c0 .712.577 1.29 1.29 1.29h.01a1.29 1.29 0 001.29-1.29v-.03a1.29 1.29 0 00-1.29-1.29zm3.88 0h-.01a1.29 1.29 0 00-1.29 1.29v.03c0 .712.577 1.29 1.29 1.29h.01a1.29 1.29 0 001.29-1.29v-.03a1.29 1.29 0 00-1.29-1.29z" fill="#C4C4C4"/><path d="M67.54 51.04H43.88a3.03 3.03 0 00-3.03 3.03v12.9A3.03 3.03 0 0043.88 70h23.66a3.03 3.03 0 003.03-3.03v-12.9a3.03 3.03 0 00-3.03-3.03z" fill="#FFC463"/></svg>
